X:1
T: The Humors of Ballingarry
C:
R:Jig
Q:180
K:G
M:6/8
L:1/16
A2|B2G2G2 d2G2G2|c2A2G2 F2G2A2|B2G2G2 B2d2B2|c2A2F2 G4A2|B2G2G2 d2G2G2|c2A2G2 F2G2A2|d2e2f2 g2d2B2|c2A2F2 G4A2|
B2G2G2 d2G2G2|c2A2G2 F2G2A2|B2G2G2 B2d2B2|c2A2F2 G4A2|B2G2G2 d2G2G2|c2A2G2 F2G2A2|d2e2f2 g2d2B2|c2A2F2 G4B2|
d2e2f2 g6|e2d2c2 B2A2G2|e2a2a2 a2g2a2|b2g2e2 e2d2B2|d2e2f2 g2f2g2|e2d2c2 B2A2B2|G2B2d2 a2d2B2|c2A2F2 G4B2|
d2e2f2 g6|e2d2c2 B2A2G2|e2a2a2 a2g2a2|b2g2e2 e2d2B2|d2e2f2 g2f2g2|e2d2c2 B2A2B2|G2B2d2 a2d2B2|c2A2F2 G4||
